app/img/youtube.svg

<svg width="26" height="18" viewBox="0 0 26 18" fill="none" xmlns="http://www.w3.org/2000/svg">
<path d="M20.6001 0H5.39987C2.4176 0 0 2.36527 0 5.28298V12.717C0 15.6347 2.4176 18 5.39987 18H20.6001C23.5824 18 26 15.6347 26 12.717V5.28298C26 2.36527 23.5824 0 20.6001 0ZM16.9482 9.36169L9.83858 12.6792C9.64914 12.7676 9.43031 12.6324 9.43031 12.4271V5.5848C9.43031 5.37656 9.65489 5.24159 9.84473 5.33573L16.9544 8.86056C17.1658 8.96535 17.1621 9.26193 16.9482 9.36169Z" fill="white" fill-opacity="0.6"/>
</svg>

<svg width="26" height="18" fill="none" xmlns="http://www.w3.org/2000/svg"><path d="M20.6 0H5.4C2.418 0 0 2.365 0 5.283v7.434C0 15.635 2.418 18 5.4 18h15.2c2.982 0 5.4-2.365 5.4-5.283V5.283C26 2.365 23.582 0 20.6 0zm-3.652 9.362l-7.11 3.317a.285.285 0 01-.408-.252V5.585c0-.208.225-.343.415-.25l7.11 3.526a.277.277 0 01-.007.5z" fill="#fff" fill-opacity=".6"/></svg>
